X: 176
T: SLIDE: Cat's Rambles to the Child's Saucepan
T: Mary Willie's
C: C: Trad.; S: Bothy Band; Johnny O'Leary
C: Set Leaders: Oliushka, Anton
Z: Anton Zille ed.; Will Harmon at The Session
N: https://thesession.org/members/26966/sets/63219
R: Slide
M: 12/8
L: 1/8
Q: 3/8=130
K: Dmaj
A|:d2 ef2 e dcd ~B3|g2 A cBA e2 A cBA|
d2 ef2 e dcd ~B3|g2 A cBA d3 d2 A:||
|:d2 ef2 a baf a2 f|e2 A cBA efe cBA|
d2 ef2 a baf a2 f|e2 A cBA d3 d2 A:||

